!!!OTL: "Das Ewige" HEILGE WAHRHEIT, WER VERMAG DEINE GLUTH ZU DAEMPFEN
!!!ARE: Europa, Mitteleuropa, Deutschland
!!!SCT: Z1121
!!!YEM: Copyright 1995, estate of Helmut Schaffrath.
**kern
*ICvox
*Ivox
*M4/4
*k[f#]
*e:
{4ee
4ee
4ee
4ee
=1
4ddn
4ccn
2b
=2
4ccn
4ddn
4ee
4ee
=3
4ddn
4ccn
2b}
=4
{4a
4b
4ccn
4a
=5
4a
4fn
2e
=6
4a
4a
4a
4a
=7
4gn
4fn
2e}
=8
{4a
4g#
4a
4a
=9
4ccn
4b
2a
=10
4ccn
4ddn
4ee
4ee
=11
4ddn
4ccn
2b}
=12
{4a
4b
4ccn
4a
=13
4a
4fn
2e
=14
4a
4a
4a
4a
=15
4gn
4fn
2e}
==
!!!AGN: religioeses Lied
!!!ONB: ESAC (Essen Associative Code) Database: ZUCCAL
!!!AMT: simple quadruple
!!!AIN: vox
!!!EED: Helmut Schaffrath
!!!EEV: 1.0
*-
